X:1
T:Kirkland, LMD
T:Kirkland, LMD
T:George Crawford Hugg, 1898
T:Public Domain Courtesy of the Cyber Hymnal™
C:George Crawford Hugg, 1898
Z:Public Domain
Z:Courtesy of the Cyber Hymnal™
%%score ( 1 2 ) 3
L:1/8
Q:1/4=88
M:3/4
K:F
V:1 treble 
V:2 treble 
V:3 bass 
V:1
 [CF] | [FA]>[FA] [FB]3 [FG] | [FA]>[Fd] [Fc]3 [FA] | [Fc]>[CF] [EG]3 [EA] | [EB]>[CE] [CF]3 [CF] | %5
 [FA]>[FA] [FB]3 [FG] | [FA]>[Fd] [Fc]3 [FA] | [Fc]>[FA] [Fc]3 [FA] | [EG]>[CF] [CF]3 [Fc] | %9
 [Fc]>[FA] [Fc]3 [Fd] | [Fc]>[FA] [Fc]3 [FA] | [EG]>[EA] F3 [^CG] | [DF]>[B,D] [A,C]3 C | %13
 [CF]>[EG] [FA]3 [EG] | [FA]>[Fd] [Fc]3 [FA] | [Fc]>[FA] [Fc]3 [FA] | [EG]>[CF] [CF]3 |] %17
V:2
 x | x6 | x6 | x6 | x6 | x6 | x6 | x6 | x6 | x6 | x6 | x2 F3 x | x5 C | x6 | x6 | x6 | x5 |] %17
V:3
 [F,A,] | [F,C]>[F,C] [F,D]3 [F,B,] | [F,C]>[E,B,] [F,A,]3 [F,C] | [F,A,]>[F,A,] [C,C]3 [C,C] | %4
 [C,C]>[C,B,] [F,A,]3 [F,A,] | [F,C]>[F,C] [F,D]3 [F,B,] | [F,C]>[F,B,] [F,A,]3 [F,C] | %7
 [F,A,]>[F,C] [A,,C]3 [C,C] | [C,B,]>[F,A,] [F,A,]3 [F,A,] | [F,A,]>[F,C] [F,A,]3 [F,B,] | %10
 [F,A,]>[F,C] [F,A,]3 [F,C] | [C,C]>[C,C] [D,A,]3 [A,,F,] | [B,,F,]>[B,,F,] [F,,F,]3 [F,,A,] | %13
 [A,,C]>[C,C] [F,C]3 [C,C] | [F,C]>[F,B,] [F,A,]3 [F,C] | [F,A,]>[F,C] [A,,C]3 [C,C] | %16
 [C,B,]>[F,A,] [F,A,]3 |] %17

